images/sprite/icon-unique-3.svg

<svg width="135" height="133" viewBox="0 0 135 133" fill="none" xmlns="http://www.w3.org/2000/svg">
<g clip-path="url(#clip0_6917_551)">
<path d="M64.047 52.0816C69.7936 58.663 75.6152 67.2135 79.9814 77.9257C80.4095 78.9744 78.9755 79.6058 78.419 78.632C72.362 68.1659 65.481 58.9841 58.7497 51.568C58.1611 50.9152 57.1766 51.5038 57.5298 52.2743C61.5 63.072 73.796 77.3906 89.57 112.845C89.8054 113.422 90.6294 113.315 90.6829 112.684C92.6734 77.2729 74.4274 57.7748 65.2776 50.8189C64.3252 50.0912 63.2872 51.2041 64.0577 52.0816H64.047Z" fill="#5BC94E"/>
<path d="M98.7942 51.6317C96.9107 51.4712 95.8941 52.5627 97.0177 53.5366C103.428 59.0692 114.793 67.9087 131.198 86.6576C131.776 87.3853 132.707 87.1178 132.696 86.4329C132.333 66.0466 111.443 52.7019 98.7942 51.6317Z" fill="#5BC94E"/>
<path d="M124.51 2.67293C118.314 1.68839 108.736 2.20206 101.449 6.37564C100.774 6.76089 101.02 7.77753 101.802 7.80963C114.173 8.3233 121.557 5.65864 124.724 4.11763C125.398 3.78588 125.249 2.79064 124.51 2.67293Z" fill="#5BC94E"/>
<path d="M131.755 41.9902C127.924 45.8534 124.789 52.9057 124.981 58.4704C125.013 59.3693 126.105 59.8402 126.79 59.2516C133.97 53.109 134.077 45.9818 133.628 42.6323C133.51 41.7333 132.397 41.3374 131.755 41.9902Z" fill="#5BC94E"/>
<path d="M119.332 20.3946C115.811 22.4172 107.229 29.1912 105.57 47.9188C105.506 48.6037 106.34 49.021 106.843 48.5502C114.72 41.1126 119.171 26.1092 120.456 21.2293C120.627 20.5765 119.921 20.0628 119.332 20.3946Z" fill="#5BC94E"/>
<path d="M103.309 71.4833C106.145 78.2787 108.307 86.6579 108.296 96.3642C108.296 97.3166 106.723 97.4236 106.573 96.5033C104.925 86.5402 102.014 77.3584 98.5898 69.6319C98.2902 68.9577 97.1558 69.1503 97.1879 69.8566C96.7813 79.5201 102.763 94.256 103.941 126.735C103.941 127.259 104.743 127.398 105.032 126.906C120.314 99.3071 110.779 78.8352 104.925 70.8091C104.315 69.9744 102.935 70.5736 103.32 71.4833H103.309Z" fill="#5BC94E"/>
<path d="M53.2289 28.9127C62.3251 32.0482 71.8173 37.5809 79.0729 46.9126C79.7792 47.8329 78.5486 48.7853 77.746 47.9827C68.928 39.3145 58.0339 33.5786 47.3431 30.3574C46.4121 30.0792 45.6309 30.8604 46.3693 31.3205C54.6201 38.6082 77.5319 44.4726 93.231 82.0562C93.445 82.6876 94.1406 82.4308 94.1727 81.6923C95.1144 40.4168 66.702 29.4692 53.9566 27.5215C52.6082 27.2968 52.0196 28.4954 53.2396 28.9127H53.2289Z" fill="#5BC94E"/>
<path d="M57.1333 44.0769C35.8053 35.8474 12.9148 24.4932 2.52369 2.85482L4.66399 2.18063C7.32865 17.8048 15.4618 31.9307 23.5735 45.3932C31.835 59.0482 41.1667 72.1254 47.9835 86.6366C48.3474 87.3964 47.1595 88.2097 46.6565 87.2573C32.9587 58.5881 8.75195 34.5098 2.42738 2.55518C2.20265 1.2924 4.0326 0.693122 4.56767 1.88098C6.9755 7.00699 10.2073 11.7477 14.0385 15.9534C25.7566 28.731 41.7767 36.2862 57.6684 42.7071C58.5245 43.0495 58.0429 44.4193 57.1333 44.0662V44.0769Z" fill="#5BC94E"/>
<path d="M118.398 102.785C123.364 83.1478 110.875 69.2038 96.9417 60.3323" stroke="#5BC94E" stroke-width="1.4661" stroke-linecap="round" stroke-linejoin="round"/>
<path d="M43.7898 43.2851C46.5508 50.5193 49.6221 59.1768 52.854 69.3218C53.175 70.317 51.7089 70.8735 51.2381 69.9318C46.2298 59.7868 42.2381 49.8986 39.1668 41.3267C38.8993 40.5776 37.7649 40.7703 37.7756 41.5622C37.8719 51.568 41.7673 71.751 64.9573 100.848C65.3212 101.308 66.0917 100.977 65.9847 100.41C60.2487 69.0756 51.4521 51.5145 45.3737 42.5039C44.7851 41.6371 43.4153 42.3113 43.7791 43.2851H43.7898Z" fill="#5BC94E"/>
<path d="M25.9169 62.2155C25.307 61.52 24.0656 62.2477 24.4829 63.061C27.6078 69.118 31.1179 76.3736 34.8955 84.9348C35.27 85.7695 33.9323 86.4116 33.4294 85.6304C27.9823 77.2618 23.5091 69.011 19.999 61.8196C19.6887 61.1882 18.6399 61.4771 18.7041 62.1727C19.5282 70.9158 24.6542 88.188 48.5719 111.303C48.9465 111.667 49.6421 111.303 49.503 110.811C41.83 83.9716 32.2843 69.4925 25.9169 62.2155Z" fill="#5BC94E"/>
<path d="M14.1803 16.6922C24.1755 15.5472 34.2991 18.1369 42.9352 23.1238C44.1765 23.8194 45.3323 24.6541 46.5308 25.4032C46.8733 25.6172 46.9696 26.0667 46.7556 26.4091C46.5308 26.773 46.0386 26.8586 45.6961 26.6018C36.6748 20.4805 25.3847 17.0989 14.4907 18.4473C13.3028 18.672 12.9603 16.8741 14.1803 16.6815V16.6922Z" fill="#5BC94E"/>
<path d="M14.9609 31.3097C14.1476 39.2394 15.2926 47.7578 19.6053 54.5854C20.0976 55.388 18.8669 56.1692 18.3533 55.3559C16.0524 51.803 14.5435 47.7899 13.7837 43.6377C13.0132 39.4749 12.7885 35.312 13.2166 31.0742C13.2701 30.5927 13.6981 30.2395 14.1797 30.293C14.6827 30.3465 15.0358 30.8174 14.9502 31.3097H14.9609Z" fill="#5BC94E"/>
<path d="M120.014 31.1064C126.638 22.8127 131.646 12.9246 133.551 2.43715L135.252 3.18626C133.337 5.6583 130.651 7.40263 127.868 8.52629C119.585 11.7474 110.543 11.7688 101.939 13.1386C90.6594 14.6475 78.9948 18.179 71.3968 27.0826C70.8082 27.7782 69.6417 26.8793 70.2945 26.1195C74.1684 21.6035 79.1981 18.1469 84.6452 15.8675C90.1136 13.5774 95.9138 12.336 101.693 11.4692C111.549 9.60714 127.13 10.2813 133.733 2.0198C134.054 1.58104 134.696 1.49543 135.113 1.84857C135.392 2.08401 135.499 2.43715 135.434 2.7689C134.386 8.17314 132.545 13.4062 130.062 18.3074C127.59 23.2194 124.658 27.8317 121.116 32.0695C120.484 32.7972 119.371 31.8448 120.014 31.1064Z" fill="#5BC94E"/>
<path d="M35.1115 132.899C20.7716 124.948 11.4078 110.158 6.87035 94.7054L8.58259 95.005C4.23779 102.207 2.39714 111.228 4.20569 119.511C4.81567 122.283 5.82161 124.958 7.13789 127.484C7.33052 127.848 7.1914 128.287 6.82755 128.479C6.4744 128.661 6.03564 128.533 5.84301 128.18C4.43042 125.568 3.33887 122.765 2.66468 119.854C1.30559 114.032 1.70154 107.879 3.41378 102.186C4.2913 99.3284 5.40425 96.5995 6.99877 93.967C7.39472 93.2714 8.51838 93.4319 8.6896 94.2024C10.755 101.768 14.2223 109.131 18.6848 115.605C20.9321 118.848 23.479 121.898 26.347 124.605C29.1936 127.334 32.3934 129.678 35.8178 131.615C36.6418 132.064 35.9676 133.37 35.1115 132.899Z" fill="#5BC94E"/>
<path d="M7.78726 94.4703C11.8324 104.947 18.6707 107.141 18.6707 107.141" stroke="#5BC94E" stroke-width="1.4661" stroke-linecap="round" stroke-linejoin="round"/>
<path d="M45.4802 16.9271C56.492 4.17099 75.6583 0.00812149 91.1434 6.52532C92.2242 6.98548 91.5393 8.65491 90.4371 8.18404C75.6797 1.84877 57.209 5.73341 46.5932 17.901C45.9725 18.618 44.8488 17.6548 45.4909 16.9271H45.4802Z" fill="#5BC94E"/>
<path d="M24.0116 11.9943C24.0116 11.9943 42.0329 -0.836805 63.3288 6.05494" stroke="#5BC94E" stroke-width="1.4661" stroke-linecap="round" stroke-linejoin="round"/>
<path d="M108.587 131.711C113.21 126.499 124.04 111.967 125.185 89.2582C125.217 88.5305 126.095 88.188 126.63 88.691C136.85 98.4507 133.992 125.344 109.497 133.059C108.683 133.316 108.02 132.353 108.587 131.711Z" fill="#5BC94E"/>
<path d="M123.985 131.454C126.104 129.721 129.571 126.36 131.744 121.587C132.033 120.956 132.931 120.903 133.252 121.512C135.618 125.964 133.82 132.974 124.52 132.942C123.728 132.942 123.375 131.946 123.985 131.443V131.454Z" fill="#5BC94E"/>
<path d="M75.7973 131.208C77.852 128.95 81.1695 124.701 83.1064 118.997C83.374 118.227 84.412 118.088 84.8615 118.783C87.9542 123.524 85.8888 131.422 76.6534 132.813C75.7545 132.952 75.1873 131.871 75.7973 131.208Z" fill="#5BC94E"/>
<path d="M20.5036 130.127C18.2349 127.505 14.4358 122.497 11.6213 115.648C11.1826 114.589 9.63087 114.642 9.28843 115.734C7.42637 121.577 10.594 130.448 19.4548 131.989C20.4929 132.171 21.1885 130.93 20.5036 130.138V130.127Z" fill="#5BC94E"/>
<path d="M57.0266 130.309C54.2014 127.302 49.0968 121.588 45.6723 116.194C45.0302 115.188 43.4357 115.627 43.4357 116.815C43.425 123.31 47.7591 131.08 55.9671 132.3C57.0908 132.471 57.7971 131.133 57.0266 130.309Z" fill="#5BC94E"/>
<path d="M90.0944 130.577C91.4963 127.602 93.7008 122.165 95.0064 115.07C95.1562 114.268 96.1942 113.979 96.7079 114.61C99.8862 118.516 100.047 126.874 91.4856 131.807C90.6509 132.289 89.677 131.444 90.0837 130.577H90.0944Z" fill="#5BC94E"/>
<path d="M67.8023 128.19C69.3327 122.272 72.1257 108.681 70.7881 92.0514C70.7024 90.9919 72.0508 90.4783 72.7143 91.3237C81.2969 102.282 79.5633 119.95 69.5788 129.239C68.7976 129.967 67.5348 129.239 67.8023 128.201V128.19Z" fill="#5BC94E"/>
<path d="M41.3179 126.221C37.7864 120.389 29.8352 106.659 24.9125 93.6033C24.5166 92.5439 22.9541 92.6616 22.7401 93.7745C20.2146 107.194 28.048 123.204 39.7233 128.062C40.8577 128.533 41.9493 127.27 41.3179 126.221Z" fill="#5BC94E"/>
<path d="M51.2788 95.6476C51.7497 105.215 54.5963 115.36 60.1611 125.687C60.6426 126.575 61.991 126.393 62.205 125.408C64.8162 113.53 59.0374 102.09 53.5155 94.8449C52.7771 93.8711 51.2253 94.4383 51.2788 95.6583V95.6476Z" fill="#5BC94E"/>
<path d="M16.5762 92.3082C14.7891 86.401 11.1292 71.7292 11.5465 51.4179C11.5679 50.5617 10.5192 50.1337 9.89848 50.733C-3.1252 63.136 3.83075 84.6352 14.9175 93.4104C15.7201 94.0418 16.8758 93.2927 16.5762 92.3189V92.3082Z" fill="#5BC94E"/>
<path d="M4.88899 46.8483C4.9639 42.8459 5.31705 33.8139 7.08279 26.3228C7.26472 25.563 6.3979 25.0173 5.75581 25.4774C0.790329 29.0731 -2.08837 38.1052 3.65832 47.1907C4.01147 47.7365 4.87829 47.4903 4.88899 46.8483Z" fill="#5BC94E"/>
<path d="M40.963 16.7342C43.5527 12.2824 46.517 9.11474 48.2614 7.44531C48.775 6.95304 48.3791 6.09692 47.6728 6.16113C39.5504 6.86743 35.6979 13.0636 39.4969 16.9054C39.9249 17.3442 40.6526 17.2586 40.9523 16.7235L40.963 16.7342Z" fill="#5BC94E"/>
<path d="M58.9412 21.5498C63.0077 19.3774 72.4892 14.8079 85.9089 11.4583C86.7222 11.255 86.7864 10.1099 85.9731 9.85308C76.8554 7.02789 63.9387 10.1741 57.9031 20.4796C57.5072 21.1431 58.2563 21.9136 58.9412 21.5498Z" fill="#5BC94E"/>
<path d="M131.402 24.311C129.401 28.3883 124.446 37.1207 115.478 44.815C114.921 45.2966 115.253 46.2169 115.992 46.2276C124.328 46.2918 134.195 36.0826 132.943 24.5999C132.857 23.7973 131.766 23.5833 131.402 24.3217V24.311Z" fill="#5BC94E"/>
<path d="M86.1973 34.1675C88.4018 30.4219 93.3352 22.8346 99.7454 17.7407C100.42 17.2056 99.9487 16.1462 99.0926 16.2532C90.7561 17.2377 83.8537 23.252 84.6028 33.8036C84.6563 34.6276 85.7692 34.8845 86.1973 34.1675Z" fill="#5BC94E"/>
<path d="M95.4555 44.9542C98.1844 39.871 104.509 29.5976 116.923 16.4562C117.64 15.6963 117.019 14.4443 115.97 14.5727C103.749 16.103 92.5233 27.9388 93.3259 44.4726C93.3794 45.6177 94.9204 45.9601 95.4555 44.9542Z" fill="#5BC94E"/>
<path d="M122.08 16.3817C122.08 16.3817 128.961 17.4091 131.765 12.1011" stroke="#5BC94E" stroke-width="1.4661" stroke-linecap="round" stroke-linejoin="round"/>
</g>
<defs>
<clipPath id="clip0_6917_551">
<rect width="135" height="132" fill="white" transform="translate(0 0.760254)"/>
</clipPath>
</defs>
</svg>

<svg xmlns="http://www.w3.org/2000/svg" width="135" height="133" fill="none"><g clip-path="url(#a)"><path fill="#5BC94E" d="M64.047 52.082a92.113 92.113 0 0 1 15.934 25.844c.428 1.048-1.005 1.68-1.562.706-6.057-10.466-12.938-19.648-19.67-27.064-.588-.653-1.572-.064-1.22.706C61.5 63.072 73.797 77.391 89.57 112.845c.235.577 1.06.47 1.113-.161 1.99-35.411-16.256-54.91-25.405-61.865-.953-.728-1.99.385-1.22 1.263h-.011ZM98.794 51.632c-1.883-.16-2.9.93-1.776 1.905 6.41 5.532 17.775 14.372 34.18 33.12.578.728 1.509.46 1.498-.224-.363-20.386-21.253-33.731-33.902-34.801ZM124.51 2.673c-6.196-.985-15.774-.47-23.061 3.703-.675.385-.429 1.402.353 1.434 12.371.513 19.755-2.151 22.922-3.692.674-.332.525-1.327-.214-1.445ZM131.755 41.99c-3.831 3.863-6.966 10.916-6.774 16.48.032.9 1.124 1.37 1.809.782 7.18-6.143 7.287-13.27 6.838-16.62-.118-.899-1.231-1.295-1.873-.642ZM119.332 20.395c-3.521 2.022-12.103 8.796-13.762 27.524-.064.685.77 1.102 1.273.631 7.877-7.437 12.328-22.44 13.613-27.32.171-.654-.535-1.167-1.124-.835ZM103.309 71.483c2.836 6.796 4.998 15.175 4.987 24.881 0 .953-1.573 1.06-1.723.14-1.648-9.964-4.559-19.146-7.983-26.872-.3-.674-1.434-.482-1.402.225-.407 9.663 5.575 24.399 6.753 56.878 0 .524.802.663 1.091.171 15.282-27.599 5.747-48.07-.107-56.097-.61-.835-1.99-.235-1.605.674h-.011Z"/><path fill="#5BC94E" d="M53.229 28.913c9.096 3.135 18.588 8.668 25.844 18 .706.92-.524 1.872-1.327 1.07-8.818-8.668-19.712-14.404-30.403-17.626-.93-.278-1.712.503-.974.963 8.251 7.288 31.163 13.153 46.862 50.736.214.632.91.375.942-.364.941-41.275-27.471-52.223-40.216-54.17-1.349-.225-1.937.973-.717 1.39h-.011Z"/><path fill="#5BC94E" d="M57.133 44.077c-21.328-8.23-44.218-19.584-54.61-41.222l2.141-.674c2.665 15.624 10.798 29.75 18.91 43.212 8.261 13.655 17.593 26.732 24.41 41.244.363.76-.825 1.573-1.328.62C32.96 58.588 8.752 34.51 2.428 2.555c-.224-1.263 1.606-1.862 2.14-.674 2.409 5.126 5.64 9.867 9.472 14.072 11.718 12.778 27.738 20.333 43.63 26.754.856.343.374 1.712-.536 1.36v.01Z"/><path stroke="#5BC94E" stroke-linecap="round" stroke-linejoin="round" stroke-width="1.466" d="M118.398 102.785c4.966-19.637-7.523-33.581-21.456-42.453"/><path fill="#5BC94E" d="M43.79 43.285c2.76 7.234 5.832 15.892 9.064 26.037.321.995-1.145 1.552-1.616.61-5.008-10.145-9-20.033-12.071-28.605-.268-.75-1.402-.557-1.391.235.096 10.006 3.991 30.189 27.181 59.286.364.46 1.135.129 1.028-.438-5.736-31.334-14.533-48.895-20.611-57.906-.589-.867-1.959-.193-1.595.781h.01ZM25.917 62.215c-.61-.695-1.851.033-1.434.846 3.125 6.057 6.635 13.313 10.412 21.874.375.834-.963 1.477-1.466.695-5.447-8.368-9.92-16.619-13.43-23.81-.31-.632-1.36-.343-1.295.353.824 8.743 5.95 26.015 29.868 49.13.374.364 1.07 0 .931-.492-7.673-26.84-17.219-41.319-23.586-48.596ZM14.18 16.692c9.995-1.145 20.12 1.445 28.755 6.432 1.241.695 2.397 1.53 3.596 2.28a.727.727 0 0 1 .225 1.005.73.73 0 0 1-1.06.193c-9.021-6.122-20.311-9.503-31.205-8.155-1.188.225-1.53-1.573-.31-1.765v.01ZM14.96 31.31c-.812 7.93.333 16.448 4.645 23.275.493.803-.738 1.584-1.252.77-2.3-3.552-3.81-7.565-4.57-11.717-.77-4.163-.994-8.326-.566-12.564a.877.877 0 0 1 .963-.781.877.877 0 0 1 .77 1.017h.01ZM120.014 31.106c6.624-8.293 11.632-18.181 13.537-28.669l1.701.75c-1.915 2.471-4.601 4.216-7.384 5.34-8.283 3.22-17.325 3.242-25.929 4.612-11.28 1.509-22.944 5.04-30.542 13.944-.589.695-1.755-.204-1.103-.963 3.874-4.517 8.904-7.973 14.351-10.253 5.469-2.29 11.269-3.531 17.048-4.398 9.856-1.862 25.437-1.188 32.04-9.45a.958.958 0 0 1 1.38-.17.955.955 0 0 1 .321.92c-1.048 5.404-2.889 10.637-5.372 15.538-2.472 4.912-5.404 9.525-8.946 13.762-.632.728-1.745-.224-1.102-.963ZM35.111 132.899c-14.34-7.951-23.703-22.741-28.24-38.194l1.712.3c-4.345 7.202-6.186 16.223-4.377 24.506.61 2.772 1.616 5.447 2.932 7.973a.73.73 0 0 1-.31.995.737.737 0 0 1-.985-.299c-1.413-2.612-2.504-5.415-3.178-8.326-1.36-5.822-.963-11.975.749-17.668.877-2.858 1.99-5.587 3.585-8.219.396-.696 1.52-.535 1.69.235 2.066 7.566 5.533 14.929 9.996 21.403 2.247 3.243 4.794 6.293 7.662 9 2.847 2.729 6.046 5.073 9.47 7.01.825.449.15 1.755-.706 1.284Z"/><path stroke="#5BC94E" stroke-linecap="round" stroke-linejoin="round" stroke-width="1.466" d="M7.787 94.47c4.045 10.477 10.884 12.671 10.884 12.671"/><path fill="#5BC94E" d="M45.48 16.927C56.492 4.171 75.658.008 91.143 6.525c1.081.46.396 2.13-.706 1.659-14.757-6.335-33.228-2.45-43.844 9.717-.62.717-1.744-.246-1.102-.974h-.01Z"/><path stroke="#5BC94E" stroke-linecap="round" stroke-linejoin="round" stroke-width="1.466" d="M24.012 11.994s18.02-12.83 39.317-5.94"/><path fill="#5BC94E" d="M108.587 131.711c4.623-5.212 15.453-19.744 16.598-42.453.032-.727.91-1.07 1.445-.567 10.22 9.76 7.362 36.653-17.133 44.368-.814.257-1.477-.706-.91-1.348ZM123.985 131.454c2.119-1.733 5.586-5.094 7.759-9.867.289-.631 1.187-.684 1.508-.075 2.366 4.452.568 11.462-8.732 11.43-.792 0-1.145-.996-.535-1.499v.011ZM75.797 131.208c2.055-2.258 5.373-6.507 7.31-12.211.267-.77 1.305-.909 1.755-.214 3.092 4.741 1.027 12.639-8.209 14.03-.899.139-1.466-.942-.856-1.605ZM20.504 130.127c-2.27-2.622-6.068-7.63-8.883-14.479-.438-1.059-1.99-1.006-2.333.086-1.862 5.843 1.306 14.714 10.167 16.255 1.038.182 1.734-1.059 1.049-1.851v-.011ZM57.027 130.309c-2.826-3.007-7.93-8.721-11.355-14.115-.642-1.006-2.236-.567-2.236.621-.011 6.495 4.323 14.265 12.531 15.485 1.124.171 1.83-1.167 1.06-1.991ZM90.094 130.577c1.402-2.975 3.607-8.412 4.912-15.507.15-.802 1.188-1.091 1.702-.46 3.178 3.906 3.339 12.264-5.222 17.197-.835.482-1.809-.363-1.402-1.23h.01ZM67.802 128.19c1.53-5.918 4.324-19.509 2.986-36.139-.086-1.06 1.263-1.573 1.926-.727 8.583 10.958 6.85 28.626-3.135 37.915-.781.728-2.044 0-1.777-1.038v-.011ZM41.318 126.221c-3.532-5.832-11.483-19.562-16.405-32.618-.396-1.06-1.959-.941-2.173.172-2.525 13.419 5.308 29.429 16.983 34.287 1.135.471 2.226-.792 1.595-1.841ZM51.279 95.648c.47 9.567 3.317 19.712 8.882 30.039.482.888 1.83.706 2.044-.279 2.611-11.878-3.168-23.318-8.69-30.563-.738-.974-2.29-.407-2.236.813v-.01ZM16.576 92.308c-1.787-5.907-5.447-20.579-5.03-40.89.022-.856-1.027-1.284-1.648-.685-13.023 12.403-6.067 33.902 5.02 42.677.802.632 1.958-.117 1.658-1.091v-.01ZM4.889 46.848c.075-4.002.428-13.034 2.194-20.525.182-.76-.685-1.306-1.327-.846C.79 29.073-2.088 38.105 3.658 47.191c.353.545 1.22.3 1.231-.343ZM40.963 16.734a43.023 43.023 0 0 1 7.298-9.289c.514-.492.118-1.348-.588-1.284-8.123.706-11.975 6.903-8.176 10.744a.914.914 0 0 0 1.455-.181l.011.01ZM58.941 21.55c4.067-2.173 13.548-6.742 26.968-10.092.813-.203.877-1.348.064-1.605-9.118-2.825-22.034.321-28.07 10.627-.396.663.353 1.434 1.038 1.07ZM131.402 24.311c-2.001 4.077-6.956 12.81-15.924 20.504-.557.482-.225 1.402.514 1.413 8.336.064 18.203-10.145 16.951-21.628-.086-.803-1.177-1.017-1.541-.278v-.011ZM86.197 34.167c2.205-3.745 7.138-11.332 13.548-16.426.675-.535.204-1.595-.652-1.488-8.337.985-15.24 6.999-14.49 17.55.053.825 1.166 1.082 1.594.364ZM95.456 44.954c2.728-5.083 9.053-15.356 21.467-28.498.717-.76.096-2.012-.953-1.883-12.221 1.53-23.447 13.366-22.644 29.9.053 1.145 1.594 1.487 2.13.481Z"/><path stroke="#5BC94E" stroke-linecap="round" stroke-linejoin="round" stroke-width="1.466" d="M122.08 16.382s6.881 1.027 9.685-4.28"/></g><defs><clipPath id="a"><path fill="#fff" d="M0 .76h135v132H0z"/></clipPath></defs></svg>
